X:15
T:Pibden's Fancy
N:page 14 on manuscript
M:2/4
L:1/8
K:C
cGcG | EG G2 | FAAA | {de}f2 dB | cGcG | EGGc | AF dB | c2 C || e/f/ |
gefg | abc'a | gedc | {^f}g2 {f}g2 | gefg | abc'b | gedc | {^f}g2 z2 +D.C.+ ||

